; generated by PrusaSlicer 2.4.1+win64 on 2022-11-08 at 21:56:25 UTC

; 

; external perimeters extrusion width = 0.60mm
; perimeters extrusion width = 0.50mm
; infill extrusion width = 0.50mm
; solid infill extrusion width = 0.50mm
; top infill extrusion width = 0.45mm
; first layer extrusion width = 0.42mm

; external perimeters extrusion width = 0.60mm
; perimeters extrusion width = 0.50mm
; infill extrusion width = 0.50mm
; solid infill extrusion width = 0.50mm
; top infill extrusion width = 0.45mm
; first layer extrusion width = 0.42mm

M73 P0 R162
M73 Q0 S164
M201 X1000 Y1000 Z200 E5000 ; sets maximum accelerations, mm/sec^2
M203 X200 Y200 Z12 E120 ; sets maximum feedrates, mm / sec
M204 P1250 R1250 T1250 ; sets acceleration (P, T) and retract acceleration (R), mm/sec^2
M205 X8.00 Y8.00 Z0.40 E4.50 ; sets the jerk limits, mm/sec
M205 S0 T0 ; sets the minimum extruding and travel feed rate, mm/sec
M107
;TYPE:Custom
M862.3 P "MK3S" ; printer model check
M862.1 P0.4 ; nozzle diameter check
M115 U3.10.1 ; tell printer latest fw version
G90 ; use absolute coordinates
M83 ; extruder relative mode
M104 S240 ; set extruder temp
M140 S85 ; set bed temp
M190 S85 ; wait for bed temp
M109 S240 ; wait for extruder temp
G28 W ; home all without mesh bed level
G80 ; mesh bed leveling
G1 Z0.2 F720
G1 Y-3 F1000 ; go outside print area
G92 E0
G1 X60 E9 F1000 ; intro line
G1 X100 E12.5 F1000 ; intro line
G92 E0
M221 S95

; Don't change E values below. Excessive value can damage the printer.

M907 E538 ; set extruder motor current
G21 ; set units to millimeters
G90 ; use absolute coordinates
M83 ; use relative distances for extrusion
M900 K0.08 ; Filament gcode LA 1.5
M900 K45 ; Filament gcode LA 1.0
M107
;LAYER_CHANGE
;Z:0.2
;HEIGHT:0.2
;BEFORE_LAYER_CHANGE
G92 E0.0
;0.2


G1 E-1 F2100
M73 P0 R161
G1 Z.2 F720
;AFTER_LAYER_CHANGE
;0.2
G1 Z.4
G1 X60.374 Y53.667 F10800
G1 Z.2 F720
G1 E1 F2100
M204 S800
;TYPE:Skirt/Brim
;WIDTH:0.42
G1 F1200
G1 X62.776 Y51.265 E.1065
G1 X64.446 Y50.569 E.05672
G1 X145.878 Y50.19 E2.55329
G1 X219.446 Y50.19 E2.30666
G1 X221.127 Y50.886 E.05704
G1 X223.529 Y53.288 E.1065
G1 X224.225 Y54.969 E.05704
G1 X224.225 Y129.965 E2.35146
G1 X223.529 Y131.646 E.05704
G1 X221.127 Y134.048 E.1065
G1 X220.399 Y134.545 E.02765
G1 X195.019 Y145.645 E.86855
G1 X194.066 Y145.844 E.03051
G1 X171.791 Y145.843 E.69841
G1 X101.386 Y143.522 E2.20869
G1 X77.806 Y142.519 E.74002
M73 Q0 S163
G1 X76.226 Y141.825 E.0541
G1 X73.824 Y139.423 E.1065
G1 X73.23 Y138.432 E.03625
G1 X59.78 Y94.034 E1.45454
G1 X59.678 Y93.344 E.02184
G1 X59.678 Y55.348 E1.19136
G1 X60.351 Y53.722 E.05516
M204 S1000
;WIPE_START
G1 F8640
G1 X62.776 Y51.265 E-.79709
G1 X63.387 Y51.01 E-.15291
;WIPE_END
G1 E-.05 F2100
G1 Z.4 F720
G1 X62.971 Y55.228 F10800
G1 Z.2 F720
G1 E1 F2100
M204 S800
G1 F1200
G1 X63.197 Y54.835 E.01422
G1 X63.872 Y54.15 E.03016
G1 X64.33 Y53.825 E.01759
G1 X65.727 Y53.374 E.04605
G1 X71.093 Y53.367 E.16822
G1 X72.045 Y53.586 E.03065
G1 X72.992 Y54.104 E.03384
G1 X73.554 Y54.64 E.02435
G1 X74.013 Y55.298 E.02516
G1 X74.386 Y56.369 E.03554
G1 X74.408 Y57.764 E.04375
G1 X99.498 Y57.764 E.78665
G1 X99.522 Y56.825 E.02945
G1 X99.826 Y55.86 E.03173
G1 X100.356 Y55.05 E.03033
G1 X101.038 Y54.424 E.02904
G1 X101.672 Y54.068 E.0228
G1 X102.786 Y53.769 E.03617
G1 X105.44 Y53.817 E.08321
G1 X106.229 Y54.062 E.02591
G1 X106.928 Y54.462 E.02527
G1 X107.673 Y55.197 E.0328
G1 X108.109 Y55.915 E.02635
G1 X108.407 Y56.93 E.03317
G1 X108.423 Y57.764 E.02614
G1 X131.614 Y57.764 E.72714
G1 X131.598 Y56.64 E.03524
G1 X131.773 Y55.858 E.02512
G1 X132.323 Y54.817 E.03691
G1 X132.948 Y54.18 E.028
G1 X133.495 Y53.799 E.0209
G1 X134.911 Y53.364 E.04644
G1 X141.296 Y53.392 E.20019
G1 X142.532 Y53.8 E.04082
G1 X143.045 Y54.155 E.01959
G1 X143.64 Y54.74 E.02615
G1 X144.051 Y55.406 E.02455
G1 X144.805 Y54.243 E.04346
G1 X145.349 Y53.733 E.02337
G1 X145.819 Y53.416 E.01779
G1 X147.227 Y52.985 E.04616
G1 X218.081 Y52.988 E2.22157
G1 X218.876 Y53.148 E.02545
G1 X219.612 Y53.472 E.02518
G1 X220.478 Y54.184 E.03516
G1 X221.132 Y55.19 E.03763
G1 X221.43 Y56.319 E.03663
G1 X221.43 Y128.615 E2.26677
G1 X221.156 Y129.692 E.03486
G1 X220.563 Y130.653 E.0354
G1 X220.007 Y131.184 E.0241
G1 X219.565 Y131.493 E.0169
G1 X218.108 Y131.949 E.04788
G1 X196.046 Y131.949 E.69175
G1 X195.996 Y140.072 E.2547
G1 X195.668 Y141.027 E.03165
G1 X195.176 Y141.763 E.02776
G1 X194.628 Y142.284 E.0237
G1 X194.084 Y142.643 E.02044
G1 X192.729 Y143.049 E.04435
G1 X190.482 Y143.049 E.07044
G1 X189.534 Y142.848 E.03039
G1 X188.442 Y142.239 E.03922
G1 X187.677 Y141.392 E.03578
G1 X187.266 Y140.547 E.02945
G1 X187.086 Y139.638 E.02905
G1 X187.086 Y131.949 E.24109
G1 X178.85 Y131.949 E.25822
G1 X178.85 Y139.642 E.24121
G1 X178.637 Y140.628 E.03161
G1 X177.979 Y141.77 E.04135
G1 X177.267 Y142.408 E.02998
G1 X176.435 Y142.838 E.02935
G1 X175.449 Y143.049 E.03163
G1 X173.221 Y143.049 E.06985
G1 X172.09 Y142.752 E.03665
G1 X171.108 Y142.121 E.03661
G1 X170.65 Y141.626 E.02115
G1 X170.347 Y141.193 E.01657
G1 X169.947 Y140.107 E.03627
G1 X169.89 Y131.949 E.25578
G1 X147.241 Y131.949 E.71016
G1 X146.056 Y131.628 E.03848
G1 X145.201 Y131.082 E.03181
G1 X144.635 Y130.482 E.02588
G1 X144.312 Y129.983 E.01861
G1 X143.906 Y128.628 E.04437
G1 X143.906 Y93.715 E1.09465
G1 X142.908 Y94.649 E.04285
G1 X142.412 Y94.921 E.01771
G1 X142.368 Y97.898 E.09336
G1 X141.954 Y99.061 E.0387
G1 X141.627 Y99.521 E.01768
G1 X141.081 Y100.085 E.02461
G1 X140.187 Y100.626 E.03276
G1 X139.179 Y100.901 E.03278
G1 X135.387 Y100.914 E.11888
G1 X135.387 Y114.302 E.41979
G1 X135.31 Y114.887 E.01848
G1 X134.772 Y116.104 E.04174
G1 X134.06 Y116.887 E.03319
G1 X133.295 Y117.379 E.0285
G1 X132.325 Y117.686 E.03191
G1 X131.387 Y117.71 E.0294
G1 X131.387 Y136.397 E.58593
G1 X131.09 Y137.517 E.03632
G1 X130.779 Y138.099 E.02071
G1 X129.774 Y139.112 E.04473
G1 X129.106 Y139.458 E.02359
G1 X128.16 Y139.712 E.03073
G1 X121.783 Y139.723 E.19992
G1 X120.925 Y139.545 E.0275
G1 X120.036 Y139.105 E.03109
G1 X119.156 Y138.269 E.03806
G1 X118.615 Y137.254 E.03605
G1 X118.486 Y136.728 E.01698
G1 X108.402 Y136.728 E.31617
G1 X108.367 Y137.794 E.03342
G1 X108.089 Y138.624 E.02746
G1 X107.643 Y139.337 E.02635
G1 X106.947 Y140.011 E.03038
G1 X106.283 Y140.406 E.02422
G1 X105.258 Y140.706 E.03351
G1 X102.658 Y140.705 E.08152
G1 X101.71 Y140.44 E.03085
G1 X101.086 Y140.107 E.02218
G1 X100.249 Y139.308 E.03629
G1 X99.802 Y138.579 E.02682
G1 X99.503 Y137.558 E.03336
G1 X99.484 Y136.728 E.026
G1 X88.821 Y136.728 E.33433
G1 X88.7 Y137.242 E.01654
G1 X88.179 Y138.237 E.0352
G1 X87.332 Y139.066 E.03717
G1 X86.22 Y139.599 E.03866
G1 X85.469 Y139.726 E.02388
G1 X79.151 Y139.713 E.19809
G1 X78.132 Y139.429 E.03318
G1 X77.55 Y139.118 E.02069
G1 X76.538 Y138.113 E.04474
G1 X76.188 Y137.436 E.02388
G1 X75.923 Y136.392 E.03378
G1 X75.923 Y117.71 E.58576
G1 X74.978 Y117.684 E.02963
G1 X73.908 Y117.327 E.03537
G1 X73.206 Y116.849 E.02663
G1 X72.579 Y116.166 E.02906
G1 X72.078 Y115.15 E.03553
G1 X71.936 Y114.463 E.02199
G1 X71.924 Y100.914 E.42482
G1 X68.18 Y100.908 E.11738
G1 X67.122 Y100.625 E.03435
G1 X66.416 Y100.228 E.02539
G1 X65.86 Y99.727 E.02347
G1 X65.412 Y99.153 E.02282
G1 X64.964 Y98.01 E.0385
G1 X64.904 Y95.126 E.09043
G1 X64.082 Y94.705 E.02895
G1 X63.341 Y94.034 E.03136
G1 X62.848 Y93.295 E.02783
G1 X62.503 Y92.201 E.03599
G1 X62.473 Y86.704 E.17237
G1 X62.747 Y85.626 E.03485
G1 X63.184 Y84.856 E.02777
G1 X63.818 Y84.188 E.02889
G1 X64.49 Y83.747 E.02519
G1 X64.893 Y83.599 E.01346
G1 X64.893 Y65.101 E.57999
G1 X64.551 Y64.974 E.01145
G1 X63.91 Y64.58 E.02359
G1 X63.253 Y63.925 E.02907
G1 X62.832 Y63.264 E.02459
G1 X62.51 Y62.248 E.03341
G1 X62.496 Y56.533 E.17917
G1 X62.753 Y55.609 E.03009
G1 X62.942 Y55.28 E.01187
M204 S1000
G1 X63.264 Y55.469 F10800
M204 S800
G1 F1200
G1 X63.51 Y55.047 E.01531
G1 X64.127 Y54.428 E.02739
G1 X64.523 Y54.15 E.01517
G1 X65.757 Y53.751 E.04068
G1 X71.072 Y53.745 E.16664
G1 X71.89 Y53.93 E.02629
G1 X72.751 Y54.395 E.03067
G1 X73.28 Y54.899 E.02292
G1 X73.688 Y55.491 E.02256
G1 X74.01 Y56.405 E.03037
G1 X74.037 Y58.141 E.05443
G1 X99.871 Y58.141 E.80999
G1 X99.89 Y56.911 E.03856
G1 X100.178 Y55.998 E.03002
M73 P0 R160
G1 X100.628 Y55.312 E.02571
G1 X101.276 Y54.717 E.02759
G1 X101.834 Y54.409 E.01999
G1 X102.807 Y54.146 E.0316
G1 X105.354 Y54.185 E.07985
G1 X106.096 Y54.416 E.02438
G1 X106.717 Y54.776 E.02252
G1 X107.389 Y55.447 E.02977
G1 X107.773 Y56.087 E.0234
G1 X108.037 Y57.008 E.03006
G1 X108.048 Y58.141 E.03551
G1 X131.997 Y58.141 E.7509
G1 X131.975 Y56.658 E.04651
G1 X132.134 Y55.967 E.02223
G1 X132.611 Y55.062 E.03208
G1 X133.204 Y54.457 E.02655
G1 X133.685 Y54.126 E.0183
G1 X134.938 Y53.741 E.04112
G1 X141.208 Y53.759 E.19657
G1 X142.342 Y54.127 E.03738
G1 X142.793 Y54.436 E.01716
G1 X143.358 Y54.991 E.02483
G1 X143.788 Y55.706 E.02616
G1 X143.981 Y56.376 E.02186
G1 X144.267 Y56.374 E.00894
G1 X144.56 Y55.315 E.03446
G1 X145.108 Y54.468 E.03165
G1 X145.575 Y54.035 E.01997
G1 X145.961 Y53.767 E.01473
G1 X147.256 Y53.362 E.04254
G1 X218.062 Y53.365 E2.22008
G1 X218.743 Y53.502 E.02178
G1 X219.435 Y53.806 E.02369
G1 X220.215 Y54.455 E.03181
G1 X220.776 Y55.317 E.03225
G1 X221.053 Y56.345 E.03337
G1 X221.053 Y128.59 E2.26521
G1 X220.798 Y129.568 E.03169
G1 X220.257 Y130.431 E.03194
G1 X219.76 Y130.9 E.02142
G1 X219.374 Y131.167 E.0147
G1 X218.08 Y131.572 E.04254
G1 X195.67 Y131.572 E.70262
G1 X195.629 Y139.981 E.26367
G1 X195.341 Y140.838 E.02836
G1 X194.874 Y141.535 E.02627
G1 X194.381 Y141.999 E.02124
G1 X193.946 Y142.291 E.01644
G1 X192.7 Y142.672 E.04084
G1 X190.503 Y142.672 E.0689
G1 X189.643 Y142.486 E.02758
G1 X188.655 Y141.926 E.03561
G1 X188.004 Y141.204 E.03048
G1 X187.616 Y140.405 E.02785
G1 X187.463 Y139.62 E.02505
G1 X187.463 Y131.572 E.25235
G1 X178.473 Y131.572 E.28186
G1 X178.473 Y139.623 E.25243
G1 X178.294 Y140.468 E.02708
G1 X177.703 Y141.512 E.03764
G1 X177.071 Y142.085 E.02672
G1 X176.285 Y142.491 E.02776
G1 X175.429 Y142.672 E.02742
G1 X173.245 Y142.672 E.0685
G1 X172.267 Y142.418 E.03167
G1 X171.368 Y141.846 E.03341
G1 X170.936 Y141.38 E.01994
G1 X170.671 Y140.998 E.01455
G1 X170.313 Y140.01 E.03297
G1 X170.266 Y131.572 E.26455
G1 X147.265 Y131.572 E.72115
G1 X146.235 Y131.295 E.03346
G1 X145.424 Y130.777 E.03015
G1 X144.939 Y130.259 E.02224
G1 X144.664 Y129.845 E.01559
G1 X144.283 Y128.599 E.04085
G1 X144.283 Y92.382 E1.13558
G1 X143.962 Y92.333 E.01018
M73 Q0 S162
G1 X143.709 Y93.154 E.02693
G1 X143.312 Y93.755 E.02258
G1 X142.669 Y94.356 E.02759
G1 X142.038 Y94.692 E.02242
G1 X142.002 Y97.804 E.09758
G1 X141.63 Y98.866 E.03528
G1 X141.346 Y99.269 E.01548
G1 X140.828 Y99.804 E.02334
G1 X140.018 Y100.288 E.02959
G1 X139.106 Y100.53 E.02957
G1 X135.01 Y100.537 E.12842
G1 X135.01 Y114.289 E.43119
G1 X134.94 Y114.808 E.01643
G1 X134.441 Y115.922 E.03825
G1 X133.833 Y116.585 E.0282
G1 X133.157 Y117.027 E.02536
G1 X132.238 Y117.317 E.03019
G1 X131.01 Y117.336 E.03851
G1 X131.01 Y136.371 E.59683
G1 X130.733 Y137.396 E.03327
G1 X130.461 Y137.895 E.01783
G1 X129.572 Y138.792 E.03958
G1 X128.986 Y139.101 E.02079
G1 X128.133 Y139.335 E.02773
G1 X121.838 Y139.349 E.19737
G1 X121.066 Y139.195 E.02468
G1 X120.271 Y138.81 E.02769
G1 X119.474 Y138.064 E.03424
G1 X118.961 Y137.101 E.03422
G1 X118.789 Y136.351 E.0241
G1 X108.033 Y136.351 E.33727
G1 X108 Y137.704 E.04241
G1 X107.756 Y138.446 E.02452
G1 X107.363 Y139.084 E.02349
G1 X106.732 Y139.7 E.02763
G1 X106.153 Y140.051 E.02123
G1 X105.178 Y140.336 E.03185
G1 X102.686 Y140.328 E.07815
G1 X101.834 Y140.084 E.02777
G1 X101.288 Y139.789 E.01947
G1 X100.528 Y139.054 E.03315
G1 X100.157 Y138.449 E.02226
G1 X99.873 Y137.477 E.03174
G1 X99.858 Y136.351 E.0353
G1 X88.515 Y136.351 E.35565
G1 X88.353 Y137.091 E.02373
G1 X87.86 Y138.034 E.03339
G1 X87.094 Y138.772 E.03334
G1 X86.085 Y139.246 E.03496
G1 X85.455 Y139.349 E.02002
G1 X79.228 Y139.342 E.19524
G1 X78.254 Y139.072 E.03168
G1 X77.754 Y138.8 E.01785
G1 X76.858 Y137.911 E.03958
G1 X76.547 Y137.319 E.02096
G1 X76.3 Y136.367 E.03084
G1 X76.3 Y117.336 E.59669
G1 X75.069 Y117.317 E.03859
G1 X74.054 Y116.978 E.03357
G1 X73.438 Y116.551 E.02349
G1 X72.904 Y115.973 E.02467
G1 X72.442 Y115.047 E.03247
G1 X72.313 Y114.442 E.01938
G1 X72.301 Y100.537 E.43601
G1 X68.251 Y100.537 E.12696
G1 X67.285 Y100.284 E.03133
G1 X66.62 Y99.91 E.02392
G1 X66.125 Y99.459 E.021
G1 X65.753 Y98.989 E.0188
G1 X65.328 Y97.904 E.03653
G1 X65.277 Y94.84 E.09606
G1 X65.035 Y94.769 E.00792
G1 X64.314 Y94.407 E.02529
G1 X63.639 Y93.802 E.02842
G1 X63.198 Y93.152 E.02462
G1 X62.88 Y92.169 E.03241
G1 X62.85 Y86.727 E.17065
G1 X63.105 Y85.747 E.03173
G1 X63.498 Y85.065 E.02469
G1 X64.074 Y84.465 E.02607
G1 X64.674 Y84.077 E.0224
G1 X65.27 Y83.87 E.01979
G1 X65.27 Y64.832 E.59691
G1 X64.73 Y64.642 E.01796
G1 X64.127 Y64.27 E.02219
G1 X63.535 Y63.674 E.02635
G1 X63.182 Y63.123 E.02051
G1 X62.887 Y62.216 E.02991
G1 X62.866 Y56.609 E.1758
G1 X63.109 Y55.734 E.02849
G1 X63.234 Y55.521 E.00774
M204 S1000
;WIPE_START
G1 F8640
G1 X63.51 Y55.047 E-.12661
G1 X64.127 Y54.428 E-.20171
G1 X64.523 Y54.15 E-.11174
G1 X65.757 Y53.751 E-.29961
G1 X66.668 Y53.75 E-.21032
;WIPE_END
G1 E-.05 F2100
G1 Z.4 F720
G1 X144.66 Y56.369 F10800
G1 Z.2 F720
G1 E1 F2100
M204 S800
G1 F1200
G1 X144.894 Y55.492 E.02845
G1 X145.382 Y54.727 E.02846
G1 X145.821 Y54.321 E.01876
G1 X146.151 Y54.094 E.01256
G1 X147.285 Y53.739 E.03724
G1 X218.043 Y53.743 E2.21856
G1 X218.646 Y53.867 E.01933
M73 P1 R160
G1 X219.256 Y54.139 E.02093
G1 X219.949 Y54.724 E.02843
G1 X220.443 Y55.495 E.0287
G1 X220.676 Y56.369 E.02837
G1 X220.676 Y128.565 E2.26365
G1 X220.442 Y129.442 E.02845
M73 Q1 S162
G1 X219.953 Y130.207 E.02846
G1 X219.514 Y130.613 E.01876
G1 X219.184 Y130.84 E.01256
G1 X218.051 Y131.195 E.03724
G1 X195.295 Y131.195 E.71351
G1 X195.262 Y139.893 E.27271
G1 X195.012 Y140.651 E.02502
G1 X194.574 Y141.306 E.02473
G1 X194.134 Y141.713 E.01878
G1 X193.804 Y141.94 E.01256
G1 X192.671 Y142.295 E.03724
G1 X190.524 Y142.295 E.06732
G1 X189.754 Y142.124 E.02473
G1 X188.87 Y141.615 E.03199
G1 X188.332 Y141.015 E.02525
G1 X187.966 Y140.263 E.02624
G1 X187.84 Y139.603 E.02106
G1 X187.84 Y131.195 E.26362
G1 X178.096 Y131.195 E.30551
G1 X178.096 Y139.604 E.26366
G1 X177.951 Y140.311 E.02262
G1 X177.426 Y141.254 E.03384
G1 X176.837 Y141.788 E.02492
G1 X176.137 Y142.143 E.02461
G1 X175.41 Y142.295 E.02329
G1 X173.27 Y142.295 E.06711
G1 X172.393 Y142.061 E.02845
G1 X171.628 Y141.572 E.02846
G1 X171.222 Y141.134 E.01876
G1 X170.996 Y140.806 E.01247
G1 X170.679 Y139.914 E.02968
G1 X170.641 Y131.195 E.27338
G1 X147.29 Y131.195 E.73217
G1 X146.413 Y130.961 E.02845
G1 X145.648 Y130.472 E.02846
G1 X145.242 Y130.034 E.01876
G1 X145.015 Y129.703 E.01256
G1 X144.66 Y128.57 E.03724
G1 X144.66 Y56.429 E2.26193
M204 S1000
G1 X145.037 Y56.429 F10800
M204 S800
G1 F1200
G1 X145.249 Y55.621 E.02621
G1 X145.656 Y54.988 E.02358
G1 X146.067 Y54.607 E.01756
G1 X146.34 Y54.421 E.01037
G1 X147.314 Y54.116 E.03199
G1 X218.022 Y54.12 E2.21702
G1 X218.547 Y54.231 E.01681
G1 X219.075 Y54.471 E.01817
G1 X219.682 Y54.992 E.0251
G1 X220.087 Y55.623 E.02351
G1 X220.299 Y56.395 E.0251
G1 X220.299 Y128.539 E2.26203
G1 X220.086 Y129.313 E.02517
G1 X219.68 Y129.946 E.02358
G1 X219.269 Y130.327 E.01756
G1 X218.995 Y130.513 E.01037
G1 X218.022 Y130.818 E.03198
G1 X194.918 Y130.818 E.7244
G1 X194.894 Y139.806 E.28182
G1 X194.683 Y140.466 E.02171
G1 X194.3 Y141.045 E.02177
G1 X193.889 Y141.427 E.0176
G1 X193.615 Y141.613 E.01037
G1 X192.642 Y141.918 E.03198
G1 X190.543 Y141.918 E.0658
G1 X189.913 Y141.782 E.02023
G1 X189.129 Y141.34 E.02821
G1 X188.631 Y140.784 E.02338
G1 X188.317 Y140.124 E.02293
G1 X188.217 Y139.586 E.01716
G1 X188.217 Y130.818 E.27491
G1 X177.719 Y130.818 E.32916
G1 X177.719 Y139.586 E.27493
G1 X177.605 Y140.157 E.01825
G1 X177.146 Y140.999 E.03007
G1 X176.643 Y141.464 E.02149
G1 X175.99 Y141.795 E.02296
G1 X175.391 Y141.918 E.01915
G1 X173.296 Y141.918 E.06571
G1 X172.521 Y141.706 E.02517
G1 X171.889 Y141.299 E.02358
G1 X171.508 Y140.888 E.01756
G1 X171.322 Y140.615 E.01035
G1 X171.046 Y139.82 E.02638
